X: 11069
T: Duchess Of Hamilton, The
R: strathspey
M: 4/4
K: Gmajor
c|"G"B<G[G3/2G,3/2]A/ "F"=F>GA>c|"G"B<G[G3/2G,3/2][D/G,/] {B,C}[B,3/2D3/2][A,/D/][G,3/2D3/2]c/|B<G[G3/2G,3/2]A/ "F"=F>GA>c|"G"{Bc}B>d "D7"A/B/c/A/ "G"B<G[GG,]:|
f|"G"{gf}g>d B/c/d/B/ g<dd>f|{gf}g>d (3gab "Am"a<e{ef}e>f|"G"{gf}g>d B/c/d/B/ g<d"C"{ef}e>c|"G"B<g"D7"A>c "G"B<G[G3/2G,3/2]f/|
"G"{gf}g>d B/c/d/B/ g<dd>f|{gf}g>d (3gab "Am"a<e{ef}e>f|"G"g<bd>B "Am"c<a{cd}c>A|"G"{Bc}B>d "D7"A/B/c/A/ "G"B<G[GG,]||

